X:1
T:Title
%%score { ( 1 3 ) | 2 }
L:1/8
M:3/4
K:G
V:1 treble nm="Grand Piano"
V:3 treble 
V:2 bass 
V:1
 z2 z2[Q:1/4=112] [B,D]2 | [B,D]2 [B,G]2 [B,G]2 | [B,G]3 [CA] [DG]2 | G2 F2 G2 | [FA]4 D2 | %5
 D2 A2 A2 | [CFA]3 [DFB] [CFA]2 | [CFA]2 [B,G]2 [DFA]2 | B4 D2 | D2 B2 B2 | B d3 d2 | d2 B2 G2 | %12
 [Ee]4 [Ge]2 | d2 d2 e2 | d2 G2 [EGc]2 | [GB] [GB]3 [FA]2 |[M:2/4] G4 |[M:1/4] D2 |[M:3/4] B6- | %19
 B2 z2 z2 | D4 E2 | D4 D2 | c6- | c2 z2 z2 | D4 E2 | D4 D2 | [B,D]2 [B,G]2 [CA]2 | %27
 [DB] [DB]3 [DG]2 | [CE]2 [EG]2 [Ec]2 |[M:4/4] [Ge]6 [Ge]2 |[M:3/4] [DGd]2 [B,G]2 [EGc]2 | %31
 [DGB]4 [CFA]2 | [B,G]6- |[M:2/4] [B,G]4 |] %34
V:2
 z2 z2 [G,,G,]2 | [G,,G,]2 [G,,G,]2 [G,,G,]2 | [G,,G,]3 [G,,G,] [B,,G,]2 | %3
 [D,B,D]2 [D,A,D]2 [D,B,D]2 | [D,D]4 [D,F,]2 | [D,F,]2 [D,F,C]2 [D,F,D]2 | D,3 D, D,2 | %7
 D,2 D,2 D,2 | [G,DG]4 [G,B,]2 | [G,B,]2 [G,D]2 [G,DG]2 | [G,DG] [G,B,G]3 [G,B,G]2 | %11
 [G,B,G]2 [G,DG]2 [G,B,=F]2 | [C,C]4 [E,C]2 | [G,B,G]2 [G,B,G]2 [G,CG]2 | %14
 [G,B,G]2[K:bass] [E,B,]2 A,,2 | [D,D] [D,D]3 [D,C]2 |[M:2/4] [G,B,]4 |[M:1/4] z2 | %18
[M:3/4] z2 z2 [G,D]2 | [G,D]2 [G,CD]2 [G,B,D]2 | [G,B,]4 [G,C]2 | [G,B,]4 z2 | z2 z2 [D,A,]2 | %23
 [D,A,]2 [D,C]2 [D,A,D]2 | [D,F,C]4 [D,G,C]2 | [D,F,C]4 [D,F,C]2 | [G,,G,]2 [G,,G,]2 [G,,G,]2 | %27
 [G,,G,] [G,,G,]3 [B,,G,]2 | [C,G,]2 [C,G,]2 [C,G,]2 |[M:4/4] [C,C]6 [C,C]2 | %30
[M:3/4] B,,2 E,2 A,,2 | D,4 D,2 | G,6- |[M:2/4] G,4 |] %34
V:3
 x6 | x6 | x6 | x6 | x6 | x6 | x6 | x6 | x6 | x6 | x6 | x6 | x6 | x6 | x6 | x6 |[M:2/4] x4 | %17
[M:1/4] x2 |[M:3/4] z2 z2 G2 | G2 A2 G2 | x6 | x6 | z2 z2 F2 | F2 [FA]2 F2 | x6 | x6 | x6 | x6 | %28
 x6 |[M:4/4] x8 |[M:3/4] x6 | x6 | x6 |[M:2/4] x4 |] %34

